svgs/sharp-regular/arrow-down-short-wide.svg

<svg xmlns="http://www.w3.org/2000/svg" viewBox="0 0 576 512"><!--! Font Awesome Pro 6.6.0 by @fontawesome - https://fontawesome.com License - https://fontawesome.com/license (Commercial License) Copyright 2024 Fonticons, Inc. --><path d="M110.3 461L128 480.3 145.7 461l88-96 16.2-17.7-35.4-32.4-16.2 17.7L152 383.1 152 56l0-24-48 0 0 24 0 327.1L57.7 332.6 41.5 314.9 6.1 347.3 22.3 365l88 96zM312 48l-24 0 0 48 24 0 48 0 24 0 0-48-24 0-48 0zm0 128l-24 0 0 48 24 0 112 0 24 0 0-48-24 0-112 0zm0 128l-24 0 0 48 24 0 176 0 24 0 0-48-24 0-176 0zm0 128l-24 0 0 48 24 0 240 0 24 0 0-48-24 0-240 0z"/></svg>

<svg xmlns="http://www.w3.org/2000/svg" viewBox="0 0 576 512"><!--! Font Awesome Pro 6.5.2 by @fontawesome - https://fontawesome.com License - https://fontawesome.com/license (Commercial License) Copyright 2024 Fonticons, Inc. --><path d="M111 461.8l17 17 17-17 96-96 17-17L224 314.9l-17 17-55 55V56 32H104V56 386.9l-55-55-17-17L-1.9 348.8l17 17 96 96zM312 48H288V96h24 48 24V48H360 312zm0 128H288v48h24H424h24V176H424 312zm0 128H288v48h24H488h24V304H488 312zm0 128H288v48h24H552h24V432H552 312z"/></svg>
